images/users/bevry.svg

<?xml version="1.0" encoding="UTF-8" standalone="no"?>
<svg width="715px" height="317px" viewBox="0 0 715 317" version="1.1" xmlns="http://www.w3.org/2000/svg" xmlns:xlink="http://www.w3.org/1999/xlink" xmlns:sketch="http://www.bohemiancoding.com/sketch/ns">
    <!-- Generator: Sketch 3.0.2 (7799) - http://www.bohemiancoding.com/sketch -->
    <title>bevry-2013-outlines</title>
    <description>Created with Sketch.</description>
    <defs></defs>
    <g id="Page-1" stroke="none" stroke-width="1" fill="none" fill-rule="evenodd" sketch:type="MSPage">
        <path d="M21.888,215.424 C30.24,216.576 43.488,217.728 60.768,217.728 C92.448,217.728 114.336,211.968 127.872,199.584 C137.664,190.08 144.288,177.408 144.288,160.704 C144.288,131.904 122.688,116.64 104.256,112.032 L104.256,111.456 C124.704,103.968 137.088,87.552 137.088,68.832 C137.088,53.568 131.04,42.048 120.96,34.56 C108.864,24.768 92.736,20.448 67.68,20.448 C50.112,20.448 32.832,22.176 21.888,24.48 L21.888,215.424 Z M46.944,41.472 C50.976,40.608 57.6,39.744 69.12,39.744 C94.464,39.744 111.744,48.672 111.744,71.424 C111.744,90.144 96.192,103.968 69.696,103.968 L46.944,103.968 L46.944,41.472 Z M46.944,122.976 L67.68,122.976 C95.04,122.976 117.792,133.92 117.792,160.416 C117.792,188.64 93.888,198.144 67.968,198.144 C59.04,198.144 51.84,197.856 46.944,196.992 L46.944,122.976 Z M294.303998,150.912 C294.591998,148.32 295.167998,144.288 295.167998,139.104 C295.167998,113.472 283.071998,73.44 237.567998,73.44 C196.959998,73.44 172.191998,106.56 172.191998,148.608 C172.191998,190.656 197.823998,218.88 240.735998,218.88 C262.911998,218.88 278.175998,214.272 287.103998,210.24 L282.783998,192.096 C273.279998,196.128 262.335998,199.296 244.191998,199.296 C218.847998,199.296 196.959998,185.184 196.383998,150.912 L294.303998,150.912 Z M196.671998,132.768 C198.687998,115.2 209.919998,91.584 235.551998,91.584 C264.063998,91.584 270.975998,116.64 270.687998,132.768 L196.671998,132.768 Z M313.279997,76.608 L366.271997,216 L390.463997,216 L445.183997,76.608 L418.687997,76.608 L391.615997,154.944 C387.007997,167.616 382.975997,179.136 379.807997,190.656 L378.943997,190.656 C376.063997,179.136 372.319997,167.616 367.711997,154.944 L340.351997,76.608 L313.279997,76.608 Z M473.087995,216 L498.143995,216 L498.143995,141.696 C498.143995,137.376 498.719995,133.344 499.295995,129.888 C502.751995,110.88 515.423995,97.344 533.279995,97.344 C536.735995,97.344 539.327995,97.632 541.919995,98.208 L541.919995,74.304 C539.615995,73.728 537.599995,73.44 534.719995,73.44 C517.727995,73.44 502.463995,85.248 496.127995,103.968 L494.975995,103.968 L494.111995,76.608 L471.935995,76.608 C472.799995,89.568 473.087995,103.68 473.087995,120.096 L473.087995,216 Z M560.031993,76.608 L611.583993,205.056 C612.735993,208.224 613.311993,210.24 613.311993,211.68 C613.311993,213.12 612.447993,215.136 611.295993,217.728 C605.535993,230.688 596.895993,240.48 589.983993,245.952 C582.495993,252.288 574.143993,256.32 567.807993,258.336 L574.143993,279.648 C580.479993,278.496 592.863993,274.176 605.247993,263.232 C622.527993,248.256 634.911993,223.776 653.055993,175.968 L691.071993,76.608 L664.287993,76.608 L636.639993,158.4 C633.183993,168.48 630.303993,179.136 627.711993,187.488 L627.135993,187.488 C624.831993,179.136 621.375993,168.192 618.207993,158.976 L587.679993,76.608 L560.031993,76.608 Z" id="Bevry-2" fill="#000000" sketch:type="MSShapeGroup"></path>
        <path d="M36.792,252.32 C28.216,252.32 21.432,258.4 21.432,268.768 C21.432,278.56 27.896,284.704 36.28,284.704 C43.768,284.704 51.704,279.712 51.704,268.256 C51.704,258.784 45.688,252.32 36.792,252.32 Z M36.664,256.544 C43.32,256.544 45.944,263.2 45.944,268.448 C45.944,275.424 41.912,280.48 36.536,280.48 C31.032,280.48 27.128,275.36 27.128,268.576 C27.128,262.688 30.008,256.544 36.664,256.544 Z M58.8079999,296.672 L64.3759999,296.672 L64.3759999,279.84 L64.5039999,279.84 C66.3599999,282.912 69.9439999,284.704 74.0399999,284.704 C81.3359999,284.704 88.1199999,279.2 88.1199999,268.064 C88.1199999,258.656 82.4879999,252.32 74.9999999,252.32 C69.9439999,252.32 66.2959999,254.56 63.9919999,258.336 L63.8639999,258.336 L63.6079999,253.024 L58.5519999,253.024 C58.6799999,255.968 58.8079999,259.168 58.8079999,263.136 L58.8079999,296.672 Z M64.3759999,266.08 C64.3759999,265.312 64.5679999,264.48 64.7599999,263.776 C65.8479999,259.552 69.4319999,256.8 73.2719999,256.8 C79.2239999,256.8 82.4879999,262.112 82.4879999,268.32 C82.4879999,275.424 79.0319999,280.288 73.0799999,280.288 C69.0479999,280.288 65.6559999,277.6 64.6319999,273.696 C64.5039999,272.992 64.3759999,272.224 64.3759999,271.392 L64.3759999,266.08 Z M120.12,269.536 C120.184,268.96 120.312,268.064 120.312,266.912 C120.312,261.216 117.624,252.32 107.512,252.32 C98.4879999,252.32 92.9839999,259.68 92.9839999,269.024 C92.9839999,278.368 98.6799999,284.64 108.216,284.64 C113.144,284.64 116.536,283.616 118.52,282.72 L117.56,278.688 C115.448,279.584 113.016,280.288 108.984,280.288 C103.352,280.288 98.4879999,277.152 98.3599999,269.536 L120.12,269.536 Z M98.4239999,265.504 C98.8719999,261.6 101.368,256.352 107.064,256.352 C113.4,256.352 114.936,261.92 114.872,265.504 L98.4239999,265.504 Z M127.288,284 L132.92,284 L132.92,265.376 C132.92,264.416 133.048,263.456 133.304,262.752 C134.264,259.616 137.144,256.992 140.856,256.992 C146.168,256.992 148.024,261.152 148.024,266.144 L148.024,284 L153.656,284 L153.656,265.504 C153.656,254.88 147,252.32 142.712,252.32 C137.592,252.32 134.008,255.2 132.472,258.144 L132.344,258.144 L132.024,253.024 L127.032,253.024 C127.224,255.584 127.288,258.208 127.288,261.408 L127.288,284 Z M160.056,264.608 L160.056,268.768 L175.864,268.768 L175.864,264.608 L160.056,264.608 Z M204.728,278.624 C203.128,279.328 201.016,280.16 197.816,280.16 C191.672,280.16 187.064,275.744 187.064,268.576 C187.064,262.112 190.904,256.864 198.008,256.864 C201.08,256.864 203.192,257.568 204.536,258.336 L205.816,253.984 C204.28,253.216 201.336,252.384 198.008,252.384 C187.896,252.384 181.368,259.296 181.368,268.832 C181.368,278.304 187.448,284.64 196.792,284.64 C200.952,284.64 204.216,283.616 205.688,282.848 L204.728,278.624 Z M225.016,252.32 C216.44,252.32 209.656,258.4 209.656,268.768 C209.656,278.56 216.12,284.704 224.504,284.704 C231.992,284.704 239.928,279.712 239.928,268.256 C239.928,258.784 233.912,252.32 225.016,252.32 Z M224.888,256.544 C231.544,256.544 234.168,263.2 234.168,268.448 C234.168,275.424 230.136,280.48 224.76,280.48 C219.256,280.48 215.352,275.36 215.352,268.576 C215.352,262.688 218.232,256.544 224.888,256.544 Z M247.031999,284 L252.663999,284 L252.663999,238.56 L247.031999,238.56 L247.031999,284 Z M262.135999,284 L267.767999,284 L267.767999,238.56 L262.135999,238.56 L262.135999,284 Z M299.511999,284 C299.127999,281.888 298.999999,279.264 298.999999,276.576 L298.999999,264.992 C298.999999,258.784 296.695999,252.32 287.223999,252.32 C283.319999,252.32 279.607999,253.408 277.047999,255.072 L278.327999,258.784 C280.503999,257.376 283.511999,256.48 286.391999,256.48 C292.727999,256.48 293.431999,261.088 293.431999,263.648 L293.431999,264.288 C281.463999,264.224 274.807999,268.32 274.807999,275.808 C274.807999,280.288 278.007999,284.704 284.279999,284.704 C288.695999,284.704 292.023999,282.528 293.751999,280.096 L293.943999,280.096 L294.391999,284 L299.511999,284 Z M293.559999,273.568 C293.559999,274.144 293.431999,274.784 293.239999,275.36 C292.343999,277.984 289.783999,280.544 285.751999,280.544 C282.871999,280.544 280.439999,278.816 280.439999,275.168 C280.439999,269.152 287.415999,268.064 293.559999,268.192 L293.559999,273.568 Z M312.695999,284 L312.951999,278.88 L313.143999,278.88 C315.447999,282.976 319.031999,284.704 323.511999,284.704 C330.423999,284.704 337.399999,279.2 337.399999,268.128 C337.463999,258.72 332.023999,252.32 324.343999,252.32 C319.351999,252.32 315.767999,254.56 313.783999,258.016 L313.655999,258.016 L313.655999,238.56 L308.087999,238.56 L308.087999,276 C308.087999,278.752 307.959999,281.888 307.831999,284 L312.695999,284 Z M313.655999,266.016 C313.655999,265.12 313.847999,264.352 313.975999,263.712 C315.127999,259.424 318.711999,256.8 322.551999,256.8 C328.567999,256.8 331.767999,262.112 331.767999,268.32 C331.767999,275.424 328.247999,280.224 322.359999,280.224 C318.263999,280.224 314.999999,277.536 313.911999,273.632 C313.783999,272.992 313.655999,272.288 313.655999,271.584 L313.655999,266.016 Z M357.623999,252.32 C349.047999,252.32 342.263999,258.4 342.263999,268.768 C342.263999,278.56 348.727999,284.704 357.111999,284.704 C364.599999,284.704 372.535999,279.712 372.535999,268.256 C372.535999,258.784 366.519999,252.32 357.623999,252.32 Z M357.495999,256.544 C364.151999,256.544 366.775999,263.2 366.775999,268.448 C366.775999,275.424 362.743999,280.48 357.367999,280.48 C351.863999,280.48 347.959999,275.36 347.959999,268.576 C347.959999,262.688 350.839999,256.544 357.495999,256.544 Z M379.639999,284 L385.207999,284 L385.207999,267.488 C385.207999,266.528 385.335999,265.632 385.463999,264.864 C386.231999,260.64 389.047999,257.632 393.015999,257.632 C393.783999,257.632 394.359999,257.696 394.935999,257.824 L394.935999,252.512 C394.423999,252.384 393.975999,252.32 393.335999,252.32 C389.559999,252.32 386.167999,254.944 384.759999,259.104 L384.503999,259.104 L384.311999,253.024 L379.383999,253.024 C379.575999,255.904 379.639999,259.04 379.639999,262.688 L379.639999,284 Z M422.519999,284 C422.135999,281.888 422.007999,279.264 422.007999,276.576 L422.007999,264.992 C422.007999,258.784 419.703999,252.32 410.231999,252.32 C406.327999,252.32 402.615999,253.408 400.055999,255.072 L401.335999,258.784 C403.511999,257.376 406.519999,256.48 409.399999,256.48 C415.735999,256.48 416.439999,261.088 416.439999,263.648 L416.439999,264.288 C404.471999,264.224 397.815999,268.32 397.815999,275.808 C397.815999,280.288 401.015999,284.704 407.287999,284.704 C411.703999,284.704 415.031999,282.528 416.759999,280.096 L416.951999,280.096 L417.399999,284 L422.519999,284 Z M416.567999,273.568 C416.567999,274.144 416.439999,274.784 416.247999,275.36 C415.351999,277.984 412.791999,280.544 408.759999,280.544 C405.879999,280.544 403.447999,278.816 403.447999,275.168 C403.447999,269.152 410.423999,268.064 416.567999,268.192 L416.567999,273.568 Z M432.119999,245.6 L432.119999,253.024 L427.319999,253.024 L427.319999,257.312 L432.119999,257.312 L432.119999,274.208 C432.119999,277.856 432.695999,280.608 434.295999,282.272 C435.639999,283.808 437.751999,284.64 440.375999,284.64 C442.551999,284.64 444.279999,284.32 445.367999,283.872 L445.111999,279.648 C444.407999,279.84 443.319999,280.032 441.847999,280.032 C438.711999,280.032 437.623999,277.856 437.623999,274.016 L437.623999,257.312 L445.687999,257.312 L445.687999,253.024 L437.623999,253.024 L437.623999,244.128 L432.119999,245.6 Z M457.655999,284 L457.655999,253.024 L452.023999,253.024 L452.023999,284 L457.655999,284 Z M454.839999,240.8 C452.791999,240.8 451.319999,242.336 451.319999,244.32 C451.319999,246.24 452.727999,247.776 454.711999,247.776 C456.951999,247.776 458.359999,246.24 458.295999,244.32 C458.295999,242.336 456.951999,240.8 454.839999,240.8 Z M480.119999,252.32 C471.543999,252.32 464.759999,258.4 464.759999,268.768 C464.759999,278.56 471.223999,284.704 479.607999,284.704 C487.095999,284.704 495.031999,279.712 495.031999,268.256 C495.031999,258.784 489.015999,252.32 480.119999,252.32 Z M479.991999,256.544 C486.647999,256.544 489.271999,263.2 489.271999,268.448 C489.271999,275.424 485.239999,280.48 479.863999,280.48 C474.359999,280.48 470.455999,275.36 470.455999,268.576 C470.455999,262.688 473.335999,256.544 479.991999,256.544 Z M502.135999,284 L507.767999,284 L507.767999,265.376 C507.767999,264.416 507.895999,263.456 508.151999,262.752 C509.111999,259.616 511.991999,256.992 515.703999,256.992 C521.015999,256.992 522.871999,261.152 522.871999,266.144 L522.871999,284 L528.503999,284 L528.503999,265.504 C528.503999,254.88 521.847999,252.32 517.559999,252.32 C512.439999,252.32 508.855999,255.2 507.319999,258.144 L507.191999,258.144 L506.871999,253.024 L501.879999,253.024 C502.071999,255.584 502.135999,258.208 502.135999,261.408 L502.135999,284 Z" id="open-collaboration-2" fill="#666666" sketch:type="MSShapeGroup"></path>
    </g>
</svg>

<svg width="715" height="317" viewBox="0 0 715 317" xmlns="http://www.w3.org/2000/svg"><title>bevry-2013-outlines</title><g fill="none" fill-rule="evenodd"><path d="M21.888 215.424c8.352 1.152 21.6 2.304 38.88 2.304 31.68 0 53.568-5.76 67.104-18.144 9.792-9.504 16.416-22.176 16.416-38.88 0-28.8-21.6-44.064-40.032-48.672v-.576c20.448-7.488 32.832-23.904 32.832-42.624 0-15.264-6.048-26.784-16.128-34.272-12.096-9.792-28.224-14.112-53.28-14.112-17.568 0-34.848 1.728-45.792 4.032v190.944zM46.944 41.472c4.032-.864 10.656-1.728 22.176-1.728 25.344 0 42.624 8.928 42.624 31.68 0 18.72-15.552 32.544-42.048 32.544H46.944V41.472zm0 81.504H67.68c27.36 0 50.112 10.944 50.112 37.44 0 28.224-23.904 37.728-49.824 37.728-8.928 0-16.128-.288-21.024-1.152v-74.016zm247.36 27.936c.288-2.592.864-6.624.864-11.808 0-25.632-12.096-65.664-57.6-65.664-40.608 0-65.376 33.12-65.376 75.168 0 42.048 25.632 70.272 68.544 70.272 22.176 0 37.44-4.608 46.368-8.64l-4.32-18.144c-9.504 4.032-20.448 7.2-38.592 7.2-25.344 0-47.232-14.112-47.808-48.384h97.92zm-97.632-18.144c2.016-17.568 13.248-41.184 38.88-41.184 28.512 0 35.424 25.056 35.136 41.184h-74.016zm116.608-56.16L366.272 216h24.192l54.72-139.392h-26.496l-27.072 78.336c-4.608 12.672-8.64 24.192-11.808 35.712h-.864c-2.88-11.52-6.624-23.04-11.232-35.712l-27.36-78.336H313.28zM473.088 216h25.056v-74.304c0-4.32.576-8.352 1.152-11.808 3.456-19.008 16.128-32.544 33.984-32.544 3.456 0 6.048.288 8.64.864V74.304c-2.304-.576-4.32-.864-7.2-.864-16.992 0-32.256 11.808-38.592 30.528h-1.152l-.864-27.36h-22.176c.864 12.96 1.152 27.072 1.152 43.488V216zm86.944-139.392l51.552 128.448c1.152 3.168 1.728 5.184 1.728 6.624 0 1.44-.864 3.456-2.016 6.048-5.76 12.96-14.4 22.752-21.312 28.224-7.488 6.336-15.84 10.368-22.176 12.384l6.336 21.312c6.336-1.152 18.72-5.472 31.104-16.416 17.28-14.976 29.664-39.456 47.808-87.264l38.016-99.36h-26.784L636.64 158.4c-3.456 10.08-6.336 20.736-8.928 29.088h-.576c-2.304-8.352-5.76-19.296-8.928-28.512L587.68 76.608h-27.648z" fill="#000"/><path d="M36.792 252.32c-8.576 0-15.36 6.08-15.36 16.448 0 9.792 6.464 15.936 14.848 15.936 7.488 0 15.424-4.992 15.424-16.448 0-9.472-6.016-15.936-14.912-15.936zm-.128 4.224c6.656 0 9.28 6.656 9.28 11.904 0 6.976-4.032 12.032-9.408 12.032-5.504 0-9.408-5.12-9.408-11.904 0-5.888 2.88-12.032 9.536-12.032zm22.144 40.128h5.568V279.84h.128c1.856 3.072 5.44 4.864 9.536 4.864 7.296 0 14.08-5.504 14.08-16.64 0-9.408-5.632-15.744-13.12-15.744-5.056 0-8.704 2.24-11.008 6.016h-.128l-.256-5.312h-5.056c.128 2.944.256 6.144.256 10.112v33.536zm5.568-30.592c0-.768.192-1.6.384-2.304 1.088-4.224 4.672-6.976 8.512-6.976 5.952 0 9.216 5.312 9.216 11.52 0 7.104-3.456 11.968-9.408 11.968-4.032 0-7.424-2.688-8.448-6.592-.128-.704-.256-1.472-.256-2.304v-5.312zm55.744 3.456c.064-.576.192-1.472.192-2.624 0-5.696-2.688-14.592-12.8-14.592-9.024 0-14.528 7.36-14.528 16.704 0 9.344 5.696 15.616 15.232 15.616 4.928 0 8.32-1.024 10.304-1.92l-.96-4.032c-2.112.896-4.544 1.6-8.576 1.6-5.632 0-10.496-3.136-10.624-10.752h21.76zm-21.696-4.032c.448-3.904 2.944-9.152 8.64-9.152 6.336 0 7.872 5.568 7.808 9.152H98.424zM127.288 284h5.632v-18.624c0-.96.128-1.92.384-2.624.96-3.136 3.84-5.76 7.552-5.76 5.312 0 7.168 4.16 7.168 9.152V284h5.632v-18.496c0-10.624-6.656-13.184-10.944-13.184-5.12 0-8.704 2.88-10.24 5.824h-.128l-.32-5.12h-4.992c.192 2.56.256 5.184.256 8.384V284zm32.768-19.392v4.16h15.808v-4.16h-15.808zm44.672 14.016c-1.6.704-3.712 1.536-6.912 1.536-6.144 0-10.752-4.416-10.752-11.584 0-6.464 3.84-11.712 10.944-11.712 3.072 0 5.184.704 6.528 1.472l1.28-4.352c-1.536-.768-4.48-1.6-7.808-1.6-10.112 0-16.64 6.912-16.64 16.448 0 9.472 6.08 15.808 15.424 15.808 4.16 0 7.424-1.024 8.896-1.792l-.96-4.224zm20.288-26.304c-8.576 0-15.36 6.08-15.36 16.448 0 9.792 6.464 15.936 14.848 15.936 7.488 0 15.424-4.992 15.424-16.448 0-9.472-6.016-15.936-14.912-15.936zm-.128 4.224c6.656 0 9.28 6.656 9.28 11.904 0 6.976-4.032 12.032-9.408 12.032-5.504 0-9.408-5.12-9.408-11.904 0-5.888 2.88-12.032 9.536-12.032zM247.032 284h5.632v-45.44h-5.632V284zm15.104 0h5.632v-45.44h-5.632V284zm37.376 0c-.384-2.112-.512-4.736-.512-7.424v-11.584c0-6.208-2.304-12.672-11.776-12.672-3.904 0-7.616 1.088-10.176 2.752l1.28 3.712c2.176-1.408 5.184-2.304 8.064-2.304 6.336 0 7.04 4.608 7.04 7.168v.64c-11.968-.064-18.624 4.032-18.624 11.52 0 4.48 3.2 8.896 9.472 8.896 4.416 0 7.744-2.176 9.472-4.608h.192l.448 3.904h5.12zm-5.952-10.432c0 .576-.128 1.216-.32 1.792-.896 2.624-3.456 5.184-7.488 5.184-2.88 0-5.312-1.728-5.312-5.376 0-6.016 6.976-7.104 13.12-6.976v5.376zM312.696 284l.256-5.12h.192c2.304 4.096 5.888 5.824 10.368 5.824 6.912 0 13.888-5.504 13.888-16.576.064-9.408-5.376-15.808-13.056-15.808-4.992 0-8.576 2.24-10.56 5.696h-.128V238.56h-5.568V276c0 2.752-.128 5.888-.256 8h4.864zm.96-17.984c0-.896.192-1.664.32-2.304 1.152-4.288 4.736-6.912 8.576-6.912 6.016 0 9.216 5.312 9.216 11.52 0 7.104-3.52 11.904-9.408 11.904-4.096 0-7.36-2.688-8.448-6.592-.128-.64-.256-1.344-.256-2.048v-5.568zm43.968-13.696c-8.576 0-15.36 6.08-15.36 16.448 0 9.792 6.464 15.936 14.848 15.936 7.488 0 15.424-4.992 15.424-16.448 0-9.472-6.016-15.936-14.912-15.936zm-.128 4.224c6.656 0 9.28 6.656 9.28 11.904 0 6.976-4.032 12.032-9.408 12.032-5.504 0-9.408-5.12-9.408-11.904 0-5.888 2.88-12.032 9.536-12.032zM379.64 284h5.568v-16.512c0-.96.128-1.856.256-2.624.768-4.224 3.584-7.232 7.552-7.232.768 0 1.344.064 1.92.192v-5.312c-.512-.128-.96-.192-1.6-.192-3.776 0-7.168 2.624-8.576 6.784h-.256l-.192-6.08h-4.928c.192 2.88.256 6.016.256 9.664V284zm42.88 0c-.384-2.112-.512-4.736-.512-7.424v-11.584c0-6.208-2.304-12.672-11.776-12.672-3.904 0-7.616 1.088-10.176 2.752l1.28 3.712c2.176-1.408 5.184-2.304 8.064-2.304 6.336 0 7.04 4.608 7.04 7.168v.64c-11.968-.064-18.624 4.032-18.624 11.52 0 4.48 3.2 8.896 9.472 8.896 4.416 0 7.744-2.176 9.472-4.608h.192L417.4 284h5.12zm-5.952-10.432c0 .576-.128 1.216-.32 1.792-.896 2.624-3.456 5.184-7.488 5.184-2.88 0-5.312-1.728-5.312-5.376 0-6.016 6.976-7.104 13.12-6.976v5.376zM432.12 245.6v7.424h-4.8v4.288h4.8v16.896c0 3.648.576 6.4 2.176 8.064 1.344 1.536 3.456 2.368 6.08 2.368 2.176 0 3.904-.32 4.992-.768l-.256-4.224c-.704.192-1.792.384-3.264.384-3.136 0-4.224-2.176-4.224-6.016v-16.704h8.064v-4.288h-8.064v-8.896l-5.504 1.472zm25.536 38.4v-30.976h-5.632V284h5.632zm-2.816-43.2c-2.048 0-3.52 1.536-3.52 3.52 0 1.92 1.408 3.456 3.392 3.456 2.24 0 3.648-1.536 3.584-3.456 0-1.984-1.344-3.52-3.456-3.52zm25.28 11.52c-8.576 0-15.36 6.08-15.36 16.448 0 9.792 6.464 15.936 14.848 15.936 7.488 0 15.424-4.992 15.424-16.448 0-9.472-6.016-15.936-14.912-15.936zm-.128 4.224c6.656 0 9.28 6.656 9.28 11.904 0 6.976-4.032 12.032-9.408 12.032-5.504 0-9.408-5.12-9.408-11.904 0-5.888 2.88-12.032 9.536-12.032zM502.136 284h5.632v-18.624c0-.96.128-1.92.384-2.624.96-3.136 3.84-5.76 7.552-5.76 5.312 0 7.168 4.16 7.168 9.152V284h5.632v-18.496c0-10.624-6.656-13.184-10.944-13.184-5.12 0-8.704 2.88-10.24 5.824h-.128l-.32-5.12h-4.992c.192 2.56.256 5.184.256 8.384V284z" fill="#666"/></g></svg>
